X: 67
M:6/8
L:1/8
K:G
|:d|gfg afd|gfg a2 d|gfg "tr"b2 g|"tr"a2 g fga|
geg fdf|ece cde|fef ded|cAF G2:||

